.local/share/icons/Gruvbox-Plus-Dark/actions/16/playlist-generator.svg

<svg xmlns="http://www.w3.org/2000/svg" width="16" height="16" viewBox="0 0 16 16">
 <defs>
  <style id="current-color-scheme" type="text/css">
   .ColorScheme-Text { color:#ebdbb2; } .ColorScheme-Highlight { color:#458588; }
  </style>
 </defs>
 <path style="fill:currentColor" class="ColorScheme-Text" d="M 3 1 A 2 2 0 0 0 1 3 A 2 2 0 0 0 3 5 A 2 2 0 0 0 5 3 A 2 2 0 0 0 3 1 z M 11.109375 1 C 10.850375 1.004 10.601969 1.1091688 10.417969 1.2929688 L 6.9179688 4.7929688 L 6.4179688 5.2929688 L 4.4179688 7.2929688 L 2.9179688 8.7929688 L 2.4179688 9.2929688 L 1.2929688 10.417969 C 0.90256875 10.807969 0.90256875 11.442031 1.2929688 11.832031 L 4.1679688 14.707031 C 4.5584688 15.097031 5.1915313 15.097031 5.5820312 14.707031 L 6.7070312 13.582031 L 7.2070312 13.082031 L 10.707031 9.5820312 L 11.207031 9.0820312 L 14.707031 5.5820312 C 15.097031 5.1915312 15.097031 4.5584687 14.707031 4.1679688 L 11.832031 1.2929688 C 11.641031 1.1015687 11.380375 0.99585 11.109375 1 z M 7.625 6.9140625 L 7.6367188 6.9257812 L 9.0742188 8.3632812 L 9.0859375 8.375 L 5.7929688 11.667969 L 5.2929688 12.167969 L 4.875 12.585938 L 3.4140625 11.125 L 3.8320312 10.707031 L 4.3320312 10.207031 L 5.8320312 8.7070312 L 7.625 6.9140625 z"/>
</svg>

<svg width="16" height="16" version="1.1" xmlns="http://www.w3.org/2000/svg">
  <defs>
    <style id="current-color-scheme" type="text/css">.ColorScheme-Text { color:#ebdbb2; } .ColorScheme-Highlight { color:#458588; }</style>
  </defs>
  <path class="ColorScheme-Text" d="m3 1c-1.105 0-2 0.8954-2 2s0.8954 2 2 2 2-0.8954 2-2-0.8954-2-2-2zm8.109 0c-0.259 4e-3 -0.5074 0.1092-0.6914 0.293l-9.125 9.125c-0.3904 0.39-0.3904 1.024 0 1.414l2.875 2.875c0.3905 0.39 1.024 0.39 1.414 0l9.125-9.125c0.39-0.3905 0.39-1.024 0-1.414l-2.875-2.875c-0.191-0.1914-0.4517-0.2971-0.7227-0.293zm-3.484 5.914 1.461 1.461-4.211 4.211-1.461-1.461z" fill="currentColor"/>
</svg>
